X: 9561
T: Dave White's
R: reel
M: 4/4
K: Dmajor
FAAG BAAd|B2AB degf|e2fe d2ed|B2dF EDEG|
FAAG BAAd|B2AB degf|edef B2dB|1 AFEG FDDE:|2 AFEG FDD f||
abaf edef|edef edBF|ABde dBAF|ABdA FEE f|
abaf edef|edef edBF|ABde dBAF|1 EDEG FDD f:|2 EDEG FDDE||

